X: 39317
T: Talon's Trip To Thompson Island
R: reel
M: 4/4
K: Emixolydian
|:B3c BAGA|B2E2BcdB|d3c dcBA|GA~A2ABcA|
B3c BAGA|BABde3c|d2ed efe(d|d)Adfe2z2:|
|:e3 f eB ~B2|eBega2ge|d3c dcBA|GA ~A2 ABcf|
e3f eB ~B2|eBega2ge|d3c dcBA|cBdfe2 z2:|

